src/pos-icons/watch-export.svg

<svg height="24" viewBox="0 0 24 24" width="24" xmlns="http://www.w3.org/2000/svg"><path d="m14 11h5l-2.5-2.5 1.42-1.42 4.92 4.92-4.92 4.92-1.42-1.42 2.5-2.5h-5zm-2 7a6 6 0 0 1 -6-6 6 6 0 0 1 6-6c1.4 0 2.69.5 3.71 1.29l1.42-1.42-.18-.14-.95-5.73h-8l-.95 5.73c-1.86 1.46-3.05 3.73-3.05 6.27 0 2.55 1.19 4.81 3.05 6.27l.95 5.73h8l.95-5.73.18-.14-1.42-1.42c-1.02.79-2.31 1.29-3.71 1.29z"/></svg>

<?xml version="1.0" encoding="UTF-8"?><!DOCTYPE svg PUBLIC "-//W3C//DTD SVG 1.1//EN" "http://www.w3.org/Graphics/SVG/1.1/DTD/svg11.dtd"><svg xmlns="http://www.w3.org/2000/svg" xmlns:xlink="http://www.w3.org/1999/xlink" version="1.1" id="mdi-watch-export" width="24" height="24" viewBox="0 0 24 24"><path d="M14,11H19L16.5,8.5L17.92,7.08L22.84,12L17.92,16.92L16.5,15.5L19,13H14V11M12,18A6,6 0 0,1 6,12A6,6 0 0,1 12,6C13.4,6 14.69,6.5 15.71,7.29L17.13,5.87L16.95,5.73L16,0H8L7.05,5.73C5.19,7.19 4,9.46 4,12C4,14.55 5.19,16.81 7.05,18.27L8,24H16L16.95,18.27L17.13,18.13L15.71,16.71C14.69,17.5 13.4,18 12,18Z" /></svg>
